X:1
T:Title
%%score [ ( 1 2 ) ( 3 4 ) ] { ( 5 6 ) | ( 7 8 ) }
L:1/8
Q:1/4=120
M:4/4
K:B
V:1 treble nm="Midi_74"
V:2 treble 
V:3 bass nm="Midi_74"
V:4 bass 
V:5 treble nm="Org."
V:6 treble 
V:7 bass 
V:8 bass 
V:1
 (d6 c2) | B4 A4 | B8 || c8 | c4 B4 | A4 G4 | F8 || (B6 A2) | (G2 A2) B4 | c8 || d8 | %11
 (e2 d2) (c2 B2) | B4"^John Camidge\n(1790-1859)" A4 | B8 |] %14
V:2
 (F6 E2) | D4 C4 | D8 || C8 | C4 G4 | F4 ^E4 | F8 || F8 | G4 F4 |{F} E8 ||{D} F8 | %11
 (G2 F2) (E2 D2) | (C2 G2) (F2 E2) | D8 |] %14
V:3
 F,8 | F,4 F,4 | F,8 || G,8 | A,4 D4 | C4 B,4 | A,8 || D8 | E4 D4 | A,8 || B,8 | B,4 B,4 | B,4 C4 | %13
 B,8 |] %14
V:4
 (B,,6 C,2) | D,4 E,4 | D,8 || ^E,8 | F,4 B,,4 | C,4 C,4 | F,8 || B,,8 | B,,4 B,,4 | F,8 || B,,8 | %11
 E,4 E,4 | F,4 F,4 | B,,8 |] %14
V:5
 d6 c2 | B4 A4 | B8 || [GBc]8 | [FAc]4 B4 | A4 G4 | F6 GA || B6 A2 | G2 A2 B4 | c8 || [Fd]8 | %11
 [Ge]2 [Fd]2 [Ec]2 [DB]2 | B4 A4 | B8 |] %14
V:6
 [DFB]6 [EFA]2 | [DF]4 [CF]4 | [B,F]8 || x6 C2- | C4 [DG]4 | [CF]4 [B,C^E]4 | [A,C]6 E2 || D8 | %8
 E4 [DF]4 | [CEA]8 || B6 A2 | x8 | C2 G2 F2 E2 | D8 |] %14
V:7
"^8 vi" x8 | x8 | x8 || x8 | x8 | x8 | x8 || x8 | x4 x2 x2 | x8 || x8 | x8 | x8 | x8 |] %14
V:8
 B,,6 C,2 | D,4 E,4 | D,8 || [^E,,^E,]8 | [F,,F,]4 B,,4 | C,4 C,4 | [F,,F,]8 || [B,,F,]8 | %8
 [B,,G,]4 [B,,F,]4 | [F,,F,]8 || [B,,F,]8 | [E,,E,]4 [E,,E,]4 | [F,,F,]4 [F,,F,]4 | [B,,F,]8 |] %14

